outputs/icons/device/devices_sharp.svg

<svg xmlns="http://www.w3.org/2000/svg" width="1200" height="1200" fill="none"><g clip-path="url(#a)"><path fill="#000" d="M200 300h900V200H100v650H0v150h700V850H200zm1000 100H800v600h400zm-100 450H900V500h200z"/></g><defs><clipPath id="a"><path fill="#fff" d="M0 0h1200v1200H0z"/></clipPath></defs></svg>

<svg width="1200" height="1200" viewBox="0 0 1200 1200" fill="none" xmlns="http://www.w3.org/2000/svg"><g clip-path="url(#clip0_225_3544)"><path d="M200 300H1100V200H100V850H0V1000H700V850H200V300ZM1200 400H800V1000H1200V400ZM1100 850H900V500H1100V850Z" fill="black"/></g><defs><clipPath id="clip0_225_3544"><path width="24" fill="white" d="M0 0H1200V1200H0V0z"/></clipPath></defs></svg>
